wheel.svg

<svg width="34" height="34" viewBox="0 0 34 34" fill="none" xmlns="http://www.w3.org/2000/svg">
<path d="M17 0C7.65 0 0 7.65 0 17C0 26.35 7.65 34 17 34C26.35 34 34 26.35 34 17C34 7.65 26.35 0 17 0ZM17 32.8666C8.27336 32.8666 1.13336 25.7266 1.13336 17C1.13336 8.27336 8.27336 1.13336 17 1.13336C25.7266 1.13336 32.8666 8.27336 32.8666 17C32.8666 25.7266 25.7266 32.8666 17 32.8666Z" fill="#030305"/>
<path d="M19.2667 20.9667C19.2667 19.72 18.2467 18.7 17 18.7C15.7534 18.7 14.7334 19.72 14.7334 20.9667C14.7334 22.2133 15.7534 23.2333 17 23.2333C18.2467 23.2334 19.2667 22.2134 19.2667 20.9667ZM17 22.1C16.3767 22.1 15.8667 21.59 15.8667 20.9667C15.8667 20.3433 16.3767 19.8333 17 19.8333C17.6234 19.8333 18.1334 20.3433 18.1334 20.9667C18.1334 21.59 17.6234 22.1 17 22.1Z" fill="#030305"/>
<path d="M18.7 17C18.7 18.2467 19.72 19.2667 20.9666 19.2667C22.2132 19.2667 23.2332 18.2467 23.2332 17C23.2332 15.7534 22.2132 14.7334 20.9666 14.7334C19.72 14.7334 18.7 15.7534 18.7 17ZM22.1 17C22.1 17.6234 21.59 18.1334 20.9666 18.1334C20.3432 18.1334 19.8332 17.6234 19.8332 17C19.8332 16.3767 20.3432 15.8667 20.9666 15.8667C21.59 15.8667 22.1 16.3767 22.1 17Z" fill="#030305"/>
<path d="M14.7334 13.0334C14.7334 14.28 15.7534 15.3 17 15.3C18.2467 15.3 19.2667 14.28 19.2667 13.0334C19.2667 11.7867 18.2467 10.7667 17 10.7667C15.7534 10.7667 14.7334 11.7867 14.7334 13.0334ZM17 11.9C17.6234 11.9 18.1334 12.41 18.1334 13.0334C18.1334 13.6567 17.6234 14.1667 17 14.1667C16.3767 14.1667 15.8667 13.6567 15.8667 13.0334C15.8667 12.41 16.3767 11.9 17 11.9Z" fill="#030305"/>
<path d="M13.0334 14.7334C11.7867 14.7334 10.7667 15.7534 10.7667 17C10.7667 18.2467 11.7867 19.2667 13.0334 19.2667C14.28 19.2667 15.3 18.2467 15.3 17C15.3 15.7534 14.28 14.7334 13.0334 14.7334ZM13.0334 18.1334C12.41 18.1334 11.9 17.6234 11.9 17C11.9 16.3767 12.41 15.8667 13.0334 15.8667C13.6567 15.8667 14.1667 16.3767 14.1667 17C14.1667 17.6234 13.6567 18.1334 13.0334 18.1334Z" fill="#030305"/>
<path d="M2.83342 14.8466C4.42006 15.5266 6.12007 15.8666 7.82007 15.8666H9.23671C9.52007 15.8666 9.74671 15.6966 9.74671 15.47C10.3701 12.6933 12.5801 10.4833 15.3567 9.85998C15.6401 9.80333 15.8101 9.57662 15.8101 9.29333V7.87669C15.8101 6.12004 15.4701 4.47668 14.7901 2.89004C14.6767 2.66339 14.4501 2.49339 14.1667 2.55004C8.33007 3.68333 3.62671 8.38662 2.49342 14.2233C2.43671 14.5066 2.60671 14.7333 2.83342 14.8466ZM13.9967 3.73997C14.4501 5.04333 14.7334 6.40333 14.7334 7.81997V8.78333C11.8434 9.57669 9.57671 11.8433 8.78336 14.7333H7.82007C6.40342 14.7333 5.04342 14.5067 3.74006 13.9967C4.87342 8.95333 8.95342 4.87333 13.9967 3.73997Z" fill="#030305"/>
<path d="M18.5866 9.8034C21.3632 10.4268 23.5732 12.6368 24.1966 15.4134C24.2532 15.6967 24.4799 15.8667 24.7632 15.8667H26.1799C27.8799 15.8667 29.5799 15.5267 31.1099 14.7901C31.3365 14.6767 31.5065 14.4501 31.4499 14.1667C30.3165 8.33011 25.6132 3.62675 19.7765 2.4934C19.4932 2.43675 19.2665 2.60675 19.1532 2.8334C18.4732 4.42004 18.1332 6.12004 18.1332 7.82004V9.23668C18.1333 9.52004 18.3033 9.74668 18.5866 9.8034ZM19.3233 7.87668C19.3233 6.46004 19.55 5.10004 20.06 3.79669C25.1033 4.93004 29.1266 8.95333 30.2599 13.9967C28.9566 14.45 27.5966 14.7333 26.1799 14.7333H25.2166C24.4232 11.8433 22.1566 9.57668 19.3232 8.83997V7.87668H19.3233Z" fill="#030305"/>
<path d="M15.47 24.1967C12.6933 23.5733 10.4833 21.3633 9.85997 18.5867C9.80332 18.3033 9.57661 18.1333 9.29332 18.1333H7.87668C6.12004 18.1333 4.47668 18.4733 2.89004 19.1533C2.66339 19.2667 2.49339 19.4933 2.55004 19.7767C3.68339 25.6133 8.38668 30.3167 14.2234 31.45H14.3367C14.5634 31.45 14.7334 31.3367 14.9034 31.1667C15.5834 29.58 15.9234 27.88 15.9234 26.18V24.7634C15.9233 24.48 15.7533 24.2534 15.47 24.1967ZM14.6766 26.1234C14.6766 27.54 14.45 28.9 13.94 30.2034C8.89661 29.07 4.87333 25.0467 3.73997 20.0034C5.04333 19.55 6.40333 19.2667 7.76332 19.21H8.72668C9.52003 22.1 11.7867 24.3667 14.6767 25.16V26.1234H14.6766Z" fill="#030305"/>
<path d="M31.1666 19.0967C29.58 18.4167 27.88 18.0767 26.18 18.0767H24.7633C24.48 18.0767 24.2533 18.2467 24.1967 18.53C23.5733 21.3067 21.3633 23.5167 18.5867 24.14C18.3033 24.1967 18.1333 24.4234 18.1333 24.7067V26.1233C18.1333 27.8799 18.4733 29.5233 19.1533 31.11C19.2099 31.3366 19.4367 31.45 19.6633 31.45C19.7199 31.45 19.7767 31.45 19.8333 31.3933C25.67 30.2599 30.3733 25.5567 31.5067 19.7199C31.5633 19.4367 31.3933 19.21 31.1666 19.0967ZM20.0033 30.26C19.5499 28.9567 19.2667 27.5967 19.2667 26.18V25.2167C22.1567 24.4233 24.4233 22.1567 25.16 19.3233H26.1234C27.54 19.3233 28.9 19.5499 30.2034 20.0599C29.07 25.1034 25.0466 29.1267 20.0033 30.26Z" fill="#030305"/>
</svg>

<svg width="34" height="34" fill="none" xmlns="http://www.w3.org/2000/svg"><path d="M17 0C7.65 0 0 7.65 0 17s7.65 17 17 17 17-7.65 17-17S26.35 0 17 0Zm0 32.867c-8.727 0-15.867-7.14-15.867-15.867S8.273 1.133 17 1.133 32.867 8.273 32.867 17 25.727 32.867 17 32.867Z" fill="#030305"/><path d="M19.267 20.967A2.273 2.273 0 0 0 17 18.7a2.273 2.273 0 0 0-2.267 2.267A2.273 2.273 0 0 0 17 23.233a2.273 2.273 0 0 0 2.267-2.266ZM17 22.1c-.623 0-1.133-.51-1.133-1.133 0-.624.51-1.134 1.133-1.134s1.133.51 1.133 1.134c0 .623-.51 1.133-1.133 1.133ZM18.7 17a2.273 2.273 0 0 0 2.267 2.267A2.273 2.273 0 0 0 23.233 17a2.273 2.273 0 0 0-2.266-2.267A2.273 2.273 0 0 0 18.7 17Zm3.4 0c0 .623-.51 1.133-1.133 1.133-.624 0-1.134-.51-1.134-1.133s.51-1.133 1.134-1.133c.623 0 1.133.51 1.133 1.133ZM14.733 13.033A2.273 2.273 0 0 0 17 15.3a2.273 2.273 0 0 0 2.267-2.267A2.273 2.273 0 0 0 17 10.767a2.273 2.273 0 0 0-2.267 2.266ZM17 11.9c.623 0 1.133.51 1.133 1.133 0 .624-.51 1.134-1.133 1.134s-1.133-.51-1.133-1.134c0-.623.51-1.133 1.133-1.133ZM13.033 14.733A2.273 2.273 0 0 0 10.767 17a2.273 2.273 0 0 0 2.266 2.267A2.273 2.273 0 0 0 15.3 17a2.273 2.273 0 0 0-2.267-2.267Zm0 3.4c-.623 0-1.133-.51-1.133-1.133s.51-1.133 1.133-1.133c.624 0 1.134.51 1.134 1.133s-.51 1.133-1.134 1.133ZM2.833 14.847c1.587.68 3.287 1.02 4.987 1.02h1.417c.283 0 .51-.17.51-.397a7.46 7.46 0 0 1 5.61-5.61.552.552 0 0 0 .453-.567V7.877c0-1.757-.34-3.4-1.02-4.987-.113-.227-.34-.397-.623-.34C8.33 3.683 3.627 8.387 2.493 14.223c-.056.284.114.51.34.624ZM13.997 3.74c.453 1.303.736 2.663.736 4.08v.963a8.516 8.516 0 0 0-5.95 5.95H7.82c-1.417 0-2.777-.226-4.08-.736C4.873 8.953 8.953 4.873 13.997 3.74ZM18.587 9.803a7.461 7.461 0 0 1 5.61 5.61.552.552 0 0 0 .566.454h1.417c1.7 0 3.4-.34 4.93-1.077.227-.113.396-.34.34-.623-1.133-5.837-5.837-10.54-11.674-11.674-.283-.056-.51.114-.623.34a12.664 12.664 0 0 0-1.02 4.987v1.417c0 .283.17.51.454.566Zm.736-1.926c0-1.417.227-2.777.737-4.08 5.043 1.133 9.067 5.156 10.2 10.2-1.303.453-2.663.736-4.08.736h-.963c-.794-2.89-3.06-5.156-5.894-5.893v-.963ZM15.47 24.197a7.461 7.461 0 0 1-5.61-5.61.552.552 0 0 0-.567-.454H7.877c-1.757 0-3.4.34-4.987 1.02-.227.114-.397.34-.34.624 1.133 5.836 5.837 10.54 11.673 11.673h.114c.226 0 .396-.113.566-.283a12.665 12.665 0 0 0 1.02-4.987v-1.417c0-.283-.17-.51-.453-.566Zm-.793 1.926c0 1.417-.227 2.777-.737 4.08-5.043-1.133-9.067-5.156-10.2-10.2 1.303-.453 2.663-.736 4.023-.793h.964a8.516 8.516 0 0 0 5.95 5.95v.963ZM31.167 19.097a12.664 12.664 0 0 0-4.987-1.02h-1.417c-.283 0-.51.17-.566.453a7.46 7.46 0 0 1-5.61 5.61.552.552 0 0 0-.454.567v1.416c0 1.757.34 3.4 1.02 4.987.057.227.284.34.51.34.057 0 .114 0 .17-.057 5.837-1.133 10.54-5.836 11.674-11.673.056-.283-.114-.51-.34-.623ZM20.003 30.26c-.453-1.303-.736-2.663-.736-4.08v-.963c2.89-.794 5.156-3.06 5.893-5.894h.963c1.417 0 2.777.227 4.08.737-1.133 5.043-5.156 9.067-10.2 10.2Z" fill="#030305"/></svg>
